!!!COM: Du Fay, Guillaume
!!!CDT: ~1397/08/05/-1474/11/27
!!!OTL: Puisque vous estez campieur
!!!AGN: Song; Chanson
!!!SCA: Duf3067
!!!voices: 3
**kern	**text	**text	**text	**kern	**text	**text	**text	**kern	**text	**text	**text
*staff3	*staff3	*staff3	*staff3	*staff2	*	*	*	*staff1	*staff1	*staff1	*staff1
*Ivox	*	*	*	*Ivox	*	*	*	*Ivox	*	*	*
*I"Tenor	*	*	*	*I"Contratenor	*	*	*	*I"Cantus	*	*	*
*I'T	*	*	*	*I'Ct	*	*	*	*I'Cn	*	*	*
*clefGv2	*	*	*	*clefGv2	*	*	*	*clefG2	*	*	*
*k[b-]	*	*	*	*k[b-]	*	*	*	*k[b-]	*	*	*
*M2/1	*	*	*	*M2/1	*	*	*	*M2/1	*	*	*
*met(C)	*	*	*	*met(C)	*	*	*	*met(C)	*	*	*
=1-	=1-	=1-	=1-	=1-	=1-	=1-	=1-	=1-	=1-	=1-	=1-
!LO:TX:Z=8:t=Tempora bina sile, dyapason portse scande [T-->C canon at the upper octave, 2 breves]	!	!	!	!	!	!	!	!	!	!	!
!!LO:TX:Z=10:t=Rondeau
0D	1.4.7. Puis-	3. Et	5. Vous	1d	1.4.7. Puis-	3. Et	5. Vous	0r	.	.	.
.	.	.	.	2A/	.	.	.	.	.	.	.
.	.	.	.	[2d\	.	.	.	.	.	.	.
=2	=2	=2	=2	=2	=2	=2	=2	=2	=2	=2	=2
1F	-que	si	me	2d\]	.	.	.	0r	.	.	.
.	.	.	.	4c\	.	.	.	.	.	.	.
.	.	.	.	4B-\	.	.	.	.	.	.	.
1F	vous	vous	cui-	1A	.	.	.	.	.	.	.
=3	=3	=3	=3	=3	=3	=3	=3	=3	=3	=3	=3
1G	es-	es-	-dez	1B-	-que	si	me	0d	1.4.7. Puis-	3. Et	5. Vous
1B-	-tez	-tez	maul-	1G	.	.	.	.	.	.	.
=4	=4	=4	=4	=4	=4	=4	=4	=4	=4	=4	=4
0A	cam-	sa-	-vais	2r	.	.	.	1f	-que	si	me
.	.	.	.	1c	vous	vous	cui-	.	.	.	.
.	.	.	.	.	.	.	.	1f	vous	vous	cui-
.	.	.	.	4B-\	.	.	.	.	.	.	.
.	.	.	.	4c\	.	.	.	.	.	.	.
=5	=5	=5	=5	=5	=5	=5	=5	=5	=5	=5	=5
0G	-pi-	-pi-	pi-	0d	es-	es-	-dez	1g	es-	es-	-dez
.	.	.	.	.	.	.	.	1b-	-tez	-tez	maul-
=6	=6	=6	=6	=6	=6	=6	=6	=6	=6	=6	=6
0F	.	.	.	0D	-tez	-tez	maul-	0a	cam-	sa-	-vais
=7	=7	=7	=7	=7	=7	=7	=7	=7	=7	=7	=7
1.G	.	.	.	1d	cam-	sa-	-vais	0g	-pi-	-pi-	pi-
.	.	.	.	2B-\	.	.	.	.	.	.	.
4F/	.	.	.	2c\	.	.	.	.	.	.	.
4E/	.	.	.	.	.	.	.	.	.	.	.
=8	=8	=8	=8	=8	=8	=8	=8	=8	=8	=8	=8
0D	-eur,	-eur,	-eur,	2.d\	-pi-	-pi-	pi-	0f	.	.	.
.	.	.	.	4c\	.	.	.	.	.	.	.
.	.	.	.	1A	.	.	.	.	.	.	.
=9	=9	=9	=9	=9	=9	=9	=9	=9	=9	=9	=9
0r	.	.	.	0G	-eur,	-eur,	-eur,	1.g	.	.	.
.	.	.	.	.	.	.	.	4f/	.	.	.
.	.	.	.	.	.	.	.	4e/	.	.	.
=10	=10	=10	=10	=10	=10	=10	=10	=10	=10	=10	=10
1G	Vou-	Con-	Mais	2r	.	.	.	0d	-eur,	-eur,	-eur,
.	.	.	.	1B-	Vou-	Con-	Mais	.	.	.	.
1F	-len-	-tre	pour	.	.	.	.	.	.	.	.
.	.	.	.	2A/	.	.	.	.	.	.	.
=11	=11	=11	=11	=11	=11	=11	=11	=11	=11	=11	=11
1G	-tier	vous	trois	2B-	.	.	.	0r	.	.	.
.	.	.	.	2G/	.	.	.	.	.	.	.
1A	a	aus-	pos	1F	-len-	-tre	pour	.	.	.	.
=12	=12	=12	=12	=12	=12	=12	=12	=12	=12	=12	=12
1.B-	vous	-si	bien	1G	-tier	vous	trois	1g	Vou-	Con-	Mais
.	.	.	.	1D	.	.	.	1f	-len-	-tre	pour
2A/	.	.	.	.	.	.	.	.	.	.	.
=13	=13	=13	=13	=13	=13	=13	=13	=13	=13	=13	=13
1B-	cam-	sa-	les	2r	.	.	.	1g	-tier	vous	trois
.	.	.	.	2G/	a	aus-	pos	.	.	.	.
1c	-pi-	-pi-	pi-	2F/	.	.	.	1a	a	aus-	pos
.	.	.	.	2A/	.	.	.	.	.	.	.
=14	=14	=14	=14	=14	=14	=14	=14	=14	=14	=14	=14
1d	-roy-	-roy-	-roy-	1G	vous	-si	bien	1.b-	vous	-si	bien
[1G	.	.	.	2d\	cam-	sa-	les	.	.	.	.
.	.	.	.	2e\	.	.	.	2a/	.	.	.
=15	=15	=15	=15	=15	=15	=15	=15	=15	=15	=15	=15
1G]	.	.	.	2d\	.	.	.	1b-	cam-	sa-	les
.	.	.	.	2g\	.	.	.	.	.	.	.
1A	.	.	.	2.f\	-pi-	-pi-	pi-	1cc	-pi-	-pi-	pi-
.	.	.	.	4e\	.	.	.	.	.	.	.
=16	=16	=16	=16	=16	=16	=16	=16	=16	=16	=16	=16
1.G	.	.	.	2.g\	-roy-	-roy-	-roy-	1dd	-roy-	-roy-	-roy-
.	.	.	.	4f\	.	.	.	.	.	.	.
.	.	.	.	4e\	.	.	.	[1g	.	.	.
.	.	.	.	4d\	.	.	.	.	.	.	.
2F/	.	.	.	2d\	.	.	.	.	.	.	.
=17	=17	=17	=17	=17	=17	=17	=17	=17	=17	=17	=17
2E/	.	.	.	2c\	-e,	-e,	-e,	1g]	.	.	.
2D/	.	.	.	2d\	.	.	.	.	.	.	.
1F	.	.	.	2r	.	.	.	1a	.	.	.
.	.	.	.	2A/	cam-	sa-	les	.	.	.	.
=18	=18	=18	=18	=18	=18	=18	=18	=18	=18	=18	=18
2G/	.	.	.	2B-\	.	.	.	1.g	.	.	.
2.B-\	.	.	.	2G/	.	.	.	.	.	.	.
.	.	.	.	2r	.	.	.	.	.	.	.
4c\	.	.	.	.	.	.	.	.	.	.	.
2d\	.	.	.	2D/	-pi-	-pi-	pi-	2f/	.	.	.
=19	=19	=19	=19	=19	=19	=19	=19	=19	=19	=19	=19
2G/	.	.	.	2E/	-roy-	-roy-	-roy-	2e/	.	.	.
2B-\	.	.	.	2G/	.	.	.	2d/	.	.	.
1A	.	.	.	1D	.	.	.	1f	.	.	.
=20	=20	=20	=20	=20	=20	=20	=20	=20	=20	=20	=20
1GN	-e,	-e.	-e,	1.dN	.	.	.	2gN/	.	.	.
.	.	.	.	.	.	.	.	2.b-\	.	.	.
1r	.	.	.	.	.	.	.	.	.	.	.
.	.	.	.	.	.	.	.	4cc\	.	.	.
.	.	.	.	[2G/	.	.	.	2dd\	.	.	.
=21	=21	=21	=21	=21	=21	=21	=21	=21	=21	=21	=21
0r	.	.	.	1G]	.	.	.	2g/	.	.	.
.	.	.	.	.	.	.	.	2b-\	.	.	.
.	.	.	.	1F#i	-e,	-e.	-e,	1a	.	.	.
=22	=22	=22	=22	=22	=22	=22	=22	=22	=22	=22	=22
1G	2.8. A	6. Vray-	&	2G/	2.8. A	6. Vray-	&	1g	-e,	-e.	-e,
.	.	.	.	2E/	.	.	.	.	.	.	.
2A/	.	.	.	2F/	.	.	.	1r	.	.	.
[2B-\	sa-	-ment	.	[2G/	sa-	-ment	.	.	.	.	.
=23	=23	=23	=23	=23	=23	=23	=23	=23	=23	=23	=23
2B-\]	.	.	.	2G/]	.	.	.	0r	.	.	.
2c\	.	.	.	2A/	.	.	.	.	.	.	.
1A	-voir	ou	.	1F#i	-voir,	ou,	.	.	.	.	.
=24	=24	=24	=24	=24	=24	=24	=24	=24	=24	=24	=24
1G	mon,	je	.	2G/	a-	vray-	.	1g	2.8. A	6. Vray-	&
.	.	.	.	2E/	.	.	.	.	.	.	.
1d	se	me	.	2D/	.	.	.	2a/	.	.	.
.	.	.	.	[2G/	sa-	-ment	.	[2b-\	sa-	-ment	.
=25	=25	=25	=25	=25	=25	=25	=25	=25	=25	=25	=25
1d	je	ta-	.	2G/]	.	.	.	2b-\]	.	.	.
.	.	.	.	2G/	-voir,	ou,	.	2cc\	.	.	.
1c	pou-	-pi-	.	2A/	mon,	je	.	1a	-voir	ou	.
.	.	.	.	2F/	.	.	.	.	.	.	.
=26	=26	=26	=26	=26	=26	=26	=26	=26	=26	=26	=26
1.B-	-roy-	-roy-	.	2r	.	.	.	1g	mon,	je	.
.	.	.	.	1G	se	me	.	.	.	.	.
.	.	.	.	.	.	.	.	1dd	se	me	.
2A/	.	.	.	2F/	je	ta-	.	.	.	.	.
=27	=27	=27	=27	=27	=27	=27	=27	=27	=27	=27	=27
1G	.	.	.	2.B-\	pou-	-pi-	.	1dd	je	ta-	.
.	.	.	.	4A/	.	.	.	.	.	.	.
1A	.	.	.	1F	-roy-	-roy-	.	1cc	pou-	-pi-	.
=28	=28	=28	=28	=28	=28	=28	=28	=28	=28	=28	=28
1B-	.	.	.	1G	-e,	-e,	.	1.b-	-roy-	-roy-	.
[1e-	.	.	.	1r	.	.	.	.	.	.	.
.	.	.	.	.	.	.	.	2a/	.	.	.
=29	=29	=29	=29	=29	=29	=29	=29	=29	=29	=29	=29
2e-\]	.	.	.	0r	.	.	.	1g	.	.	.
2d\	.	.	.	.	.	.	.	.	.	.	.
1c	.	.	.	.	.	.	.	1a	.	.	.
=30	=30	=30	=30	=30	=30	=30	=30	=30	=30	=30	=30
1B-	-e	-e	.	1d	pou-	-pi-	.	1b-	.	.	.
2r	.	.	.	[1g	-roy-	-roy-	.	[1ee-	.	.	.
[2c\	A	Com-	.	.	.	.	.	.	.	.	.
=31	=31	=31	=31	=31	=31	=31	=31	=31	=31	=31	=31
2c\]	.	.	.	1g]	.	.	.	2ee-\]	.	.	.
2B-\	.	.	.	.	.	.	.	2dd\	.	.	.
1A	.	.	.	2f\	.	.	.	1cc	.	.	.
.	.	.	.	2e\	.	.	.	.	.	.	.
=32	=32	=32	=32	=32	=32	=32	=32	=32	=32	=32	=32
1G	vous,	-me	.	1g	-e,	-e,	.	1b-	-e	-e	.
2F/	pour	du	.	1c	.	.	.	2r	.	.	.
2A/	.	.	.	.	.	.	.	[2cc\	A	Com-	.
=33	=33	=33	=33	=33	=33	=33	=33	=33	=33	=33	=33
2B-\	es-	mon-	.	2r	.	.	.	2cc\]	.	.	.
1G	.	.	.	2.d\	A	Com-	.	2b-\	.	.	.
.	.	.	.	.	.	.	.	1a	.	.	.
.	.	.	.	4c\	.	.	.	.	.	.	.
2F/	.	.	.	2A/	.	.	.	.	.	.	.
=34	=34	=34	=34	=34	=34	=34	=34	=34	=34	=34	=34
2G/	-tre	-de	.	2B-\	vous,	-me	.	1g	vous,	-me	.
4F/	.	.	.	2c\	.	.	.	.	.	.	.
4E/	.	.	.	.	.	.	.	.	.	.	.
2D/	.	.	.	[1d	.	.	.	2f/	pour	du	.
2F/	.	.	.	.	.	.	.	2a/	.	.	.
=35	=35	=35	=35	=35	=35	=35	=35	=35	=35	=35	=35
2G/	bon	le	.	1d]	.	.	.	2b-\	es-	mon-	.
2B-\	.	.	.	.	.	.	.	1g	.	.	.
1A	.	.	.	1c	pour	du	.	.	.	.	.
.	.	.	.	.	.	.	.	2f/	.	.	.
=36	=36	=36	=36	=36	=36	=36	=36	=36	=36	=36	=36
2G/	pi-	pi-	.	2d\	es-	mon-	.	2g/	-tre	-de	.
2.d\	.	.	.	1B-	.	.	.	4f/	.	.	.
.	.	.	.	.	.	.	.	4e/	.	.	.
.	.	.	.	.	.	.	.	2d/	.	.	.
4c\	.	.	.	.	.	.	.	.	.	.	.
2B-\	.	.	.	2d\	.	.	.	2f/	.	.	.
=37	=37	=37	=37	=37	=37	=37	=37	=37	=37	=37	=37
!	!	!	!	!LO:TX:Z=4:t=mss.&colon; a	!	!	!	!	!	!	!
4c/	.	.	.	1G	-tre	-de	.	2g/	bon	le	.
4B-/	.	.	.	.	.	.	.	.	.	.	.
4A/	.	.	.	.	.	.	.	2b-\	.	.	.
4G/	.	.	.	.	.	.	.	.	.	.	.
2.F#i/	.	.	.	1D	bon	le	.	1a	.	.	.
4E/	.	.	.	.	.	.	.	.	.	.	.
=38	=38	=38	=38	=38	=38	=38	=38	=38	=38	=38	=38
1G	-eur,	-eur,	.	2.B-\	pi-	pi-	.	2g/	pi-	pi-	.
.	.	.	.	.	.	.	.	2.dd\	.	.	.
.	.	.	.	4A/	.	.	.	.	.	.	.
2r	.	.	.	2G/	.	.	.	.	.	.	.
.	.	.	.	.	.	.	.	4cc\	.	.	.
2d\	pi-	pi-	.	2F/	.	.	.	2b-\	.	.	.
=39	=39	=39	=39	=39	=39	=39	=39	=39	=39	=39	=39
4e-i\	.	.	.	2G/	.	.	.	4cc/	.	.	.
4d\	.	.	.	.	.	.	.	4b-/	.	.	.
4c\	.	.	.	2A/	.	.	.	4a/	.	.	.
4B-\	.	.	.	.	.	.	.	4g/	.	.	.
1A	.	.	.	1D	.	.	.	2.f#i/	.	.	.
.	.	.	.	.	.	.	.	4e/	.	.	.
=40	=40	=40	=40	=40	=40	=40	=40	=40	=40	=40	=40
0Gl	-eur.	-eur.	.	0dl	-eur.	-eur.	.	0gl	-eur.	-eur.	.
==	==	==	==	==	==	==	==	==	==	==	==
*-	*-	*-	*-	*-	*-	*-	*-	*-	*-	*-	*-
!!!RDF**kern: l=long note in original notation
!!!RDF**kern: i=editorial accidental
!!!RDF**kern: V=start of tuplet marker
!!!RDF**kern: Z=end of tuplet marker
!!!ENC: Alejandro Planchart
!!!END: 2016/03/18/
!!!EED: Jesse Rodin
!!!EEV: 2016/03/18/
!!!ONB: Translated from SCORE and edited on 2016/03/18/ by Craig Sapp
!!muse2ps: C^@{COM}\n@{SCT}^i2I150v90,90,120c122z18l2700t130
